web/abstruse/src/assets/images/avatars/avatar_8.svg

<svg width="200px" height="280px" viewBox="0 0 200 280" version="1.1" xmlns="http://www.w3.org/2000/svg" xmlns:xlink="http://www.w3.org/1999/xlink">
    <!-- Generator: Sketch 50.2 (55047) - http://www.bohemiancoding.com/sketch -->
    <desc>Created with Sketch.</desc>
    <defs>
        <path d="M124,144.610951 L124,163 L128,163 C167.764502,163 200,195.235498 200,235 L200,244 L0,244 L0,235 C-4.86974701e-15,195.235498 32.235498,163 72,163 L76,163 L76,144.610951 C58.7626345,136.422372 46.3722246,119.687011 44.3051388,99.8812385 C38.4803105,99.0577866 34,94.0521096 34,88 L34,74 C34,68.0540074 38.3245733,63.1180731 44,62.1659169 L44,56 C44,25.072054 69.072054,5.68137151e-15 100,0 C130.927946,-5.68137151e-15 156,25.072054 156,56 L156,62.1659169 C161.675427,63.1180731 166,68.0540074 166,74 L166,88 C166,94.0521096 161.51969,99.0577866 155.694861,99.8812385 C153.627775,119.687011 141.237365,136.422372 124,144.610951 Z" id="path-1"></path>
        <path d="M181.544255,32.3304167 C210.784209,41.4878872 232,68.7921987 232,101.051724 L232,110 L32,110 L32,101.051724 C32,68.3969699 53.7388273,40.8195914 83.5340368,32.0020332 C83.182234,33.4201865 83,34.8712315 83,36.3476251 C83,52.6289957 105.161905,65.8276544 132.5,65.8276544 C159.838095,65.8276544 182,52.6289957 182,36.3476251 C182,34.9849859 181.844766,33.6439396 181.544255,32.3304167 Z" id="path-3"></path>
        <path d="M29,15.6086957 C30.410031,25.2313711 41.062182,33 54,33 C66.9681454,33 77.6461342,25.183301 79,14.7391304 C79.1012093,14.3397326 78.775269,13 76.826087,13 C56.838426,13 41.7395748,13 31.173913,13 C29.3833142,13 28.870211,14.2404669 29,15.6086957 Z" id="path-5"></path>
        <rect id="path-7" x="0" y="0" width="264" height="280"></rect>
        <path d="M114.939716,28.3372418 C111.846303,25.3568736 110,21.5924906 110,17.5 C110,7.83501688 120.297451,0 133,0 C145.702549,0 156,7.83501688 156,17.5 C156,21.5675963 154.176091,25.3110645 151.116597,28.2827668 C156.438352,29.6874962 161.866498,31.8520537 167.308863,35.006118 C187.496636,46.7057251 191.183568,73.1114668 191.901961,83.1592929 C192.219217,87.6102098 191.748406,92.1082634 190.751315,96.4378281 C190.164155,98.986558 189.091302,99.05041 188.619138,96.2008069 C187.37751,88.7073939 189.2479,80.2147477 185.182761,73.3006826 C181.748751,67.461069 170.235184,40.1359449 133,41.6707324 C95.7648164,43.2055199 91.1883705,60.5205939 84.7874413,68.8480942 C82.2013644,72.212859 80.5119249,76.5367405 79.1847257,80.524647 C78.2559568,83.3154127 77.7340739,86.1874141 77.5341822,89.1149098 C77.4273028,90.6807875 77.3444374,92.2693977 77.4215529,93.8376154 C77.4804043,95.0327505 78.0885348,96.584253 77.9224658,97.70885 C77.4232441,101.086987 75.6049405,96.9061873 75.267729,95.7003546 C74.3484305,92.415154 73.8884429,88.8932666 74.0230569,85.4813651 C74.3660182,76.7914798 76.5956048,67.5028569 80.3566792,59.6480618 C88.0168242,43.6513048 96.9448338,32.8379559 112.036894,29.0299707 C112.985531,28.7906134 113.953527,28.5587334 114.939716,28.3372418 Z" id="path-9"></path>
    </defs>
    <g id="Introduction" stroke="none" stroke-width="1" fill="none" fill-rule="evenodd">
        <g id="Intro" transform="translate(-615.000000, -555.000000)">
            <g id="middle" transform="translate(199.000000, 555.000000)">
                <g id="Avataaar/Default" transform="translate(384.000000, 0.000000)">
                    <g id="Body" stroke-width="1" fill-rule="evenodd" transform="translate(32.000000, 36.000000)">
                        <mask id="mask-2" fill="white">
                            <use xlink:href="#path-1"></use>
                        </mask>
                        <use fill="#D0C6AC" xlink:href="#path-1"></use>
                        <g id="Skin/👶🏽-03-Brown" mask="url(#mask-2)" fill="#D08B5B">
                            <g transform="translate(-32.000000, 0.000000)" id="Color">
                                <rect x="0" y="0" width="264" height="244"></rect>
                            </g>
                        </g>
                        <path d="M156,94 L156,102 C156,132.927946 130.927946,158 100,158 C69.072054,158 44,132.927946 44,102 L44,94 C44,124.927946 69.072054,150 100,150 C130.927946,150 156,124.927946 156,94 Z" id="Neck-Shadow" fill-opacity="0.100000001" fill="#000000" mask="url(#mask-2)"></path>
                    </g>
                    <g id="Clothing/Shirt-Scoop-Neck" transform="translate(0.000000, 170.000000)">
                        <mask id="mask-4" fill="white">
                            <use xlink:href="#path-3"></use>
                        </mask>
                        <use id="Clothes" fill="#E6E6E6" fill-rule="evenodd" xlink:href="#path-3"></use>
                        <g id="Color/Palette/White" mask="url(#mask-4)" fill="#FFFFFF" fill-rule="evenodd">
                            <rect id="🖍Color" x="0" y="0" width="264" height="110"></rect>
                        </g>
                    </g>
                    <g id="Face" stroke-width="1" fill-rule="evenodd" transform="translate(76.000000, 82.000000)">
                        <g id="Mouth/Tongue" transform="translate(2.000000, 52.000000)">
                            <mask id="mask-6" fill="white">
                                <use xlink:href="#path-5"></use>
                            </mask>
                            <use id="Mouth" fill-opacity="0.699999988" fill="#000000" fill-rule="evenodd" xlink:href="#path-5"></use>
                            <rect id="Teeth" fill="#FFFFFF" fill-rule="evenodd" mask="url(#mask-6)" x="39" y="2" width="31" height="16" rx="5"></rect>
                            <path d="M65.9841079,23.7466656 C65.9945954,23.8296335 66,23.9141856 66,24 L66,33 C66,39.0751322 61.0751322,44 55,44 L54,44 C47.9248678,44 43,39.0751322 43,33 L43,24 C43,23.9141856 43.0054046,23.8296335 43.0158921,23.7466656 C43.0053561,23.6651805 43,23.5829271 43,23.5 C43,21.5670034 45.9101491,20 49.5,20 C51.510438,20 53.3076958,20.4914717 54.5,21.2634601 C55.6923042,20.4914717 57.489562,20 59.5,20 C63.0898509,20 66,21.5670034 66,23.5 C66,23.5829271 65.9946439,23.6651805 65.9841079,23.7466656 Z" id="Tongue" fill="#FF4F6D" fill-rule="evenodd"></path>
                        </g>
                        <g id="Nose/Default" transform="translate(28.000000, 40.000000)" fill="#000000" fill-opacity="0.16">
                            <path d="M16,8 C16,12.418278 21.372583,16 28,16 C34.627417,16 40,12.418278 40,8" id="Nose"></path>
                        </g>
                        <g id="Eyes/Wink-Wacky-😜" transform="translate(0.000000, 8.000000)">
                            <circle id="Cornea?-I-don't-know" fill="#FFFFFF" cx="82" cy="22" r="12"></circle>
                            <circle id="Eye" fill-opacity="0.699999988" fill="#000000" cx="82" cy="22" r="6"></circle>
                            <path d="M16.1601674,25.4473116 C18.006676,21.648508 22.1644225,19 26.9975803,19 C31.8136766,19 35.9591217,21.629842 37.8153518,25.4071242 C38.3667605,26.5291977 37.5821037,27.4474817 36.790607,26.7670228 C34.3395063,24.6597833 30.8587163,23.3437884 26.9975803,23.3437884 C23.2572061,23.3437884 19.8737584,24.5787519 17.4375392,26.5716412 C16.5467928,27.3002944 15.6201012,26.5583844 16.1601674,25.4473116 Z" id="Winky-Doodle" fill-opacity="0.599999964" fill="#000000"></path>
                        </g>
                        <g id="Eyebrow/Outline/Default" fill="#000000" fill-opacity="0.599999964">
                            <g id="I-Browse" transform="translate(12.000000, 6.000000)">
                                <path d="M3.63024536,11.1585767 C7.54515501,5.64986673 18.2779197,2.56083721 27.5230268,4.83118046 C28.5957248,5.0946055 29.6788665,4.43856013 29.9422916,3.36586212 C30.2057166,2.2931641 29.5496712,1.21002236 28.4769732,0.94659732 C17.7403633,-1.69001789 5.31209962,1.88699832 0.369754639,8.84142326 C-0.270109626,9.74178291 -0.0589363917,10.9903811 0.84142326,11.6302454 C1.74178291,12.2701096 2.9903811,12.0589364 3.63024536,11.1585767 Z" id="Eyebrow" fill-rule="nonzero"></path>
                                <path d="M61.6302454,11.1585767 C65.545155,5.64986673 76.2779197,2.56083721 85.5230268,4.83118046 C86.5957248,5.0946055 87.6788665,4.43856013 87.9422916,3.36586212 C88.2057166,2.2931641 87.5496712,1.21002236 86.4769732,0.94659732 C75.7403633,-1.69001789 63.3120996,1.88699832 58.3697546,8.84142326 C57.7298904,9.74178291 57.9410636,10.9903811 58.8414233,11.6302454 C59.7417829,12.2701096 60.9903811,12.0589364 61.6302454,11.1585767 Z" id="Eyebrow" fill-rule="nonzero" transform="translate(73.000154, 6.039198) scale(-1, 1) translate(-73.000154, -6.039198) "></path>
                            </g>
                        </g>
                    </g>
                    <g id="Top" stroke-width="1" fill-rule="evenodd">
                        <mask id="mask-8" fill="white">
                            <use xlink:href="#path-7"></use>
                        </mask>
                        <g id="Mask"></g>
                        <g id="Top/Long-Hair/Bun" mask="url(#mask-8)">
                            <g transform="translate(-1.000000, 0.000000)">
                                <mask id="mask-10" fill="white">
                                    <use xlink:href="#path-9"></use>
                                </mask>
                                <use id="Short-Hair" stroke="none" fill="#28354B" fill-rule="evenodd" xlink:href="#path-9"></use>
                                <g id="Color/Hair/Brown" stroke="none" fill="none" mask="url(#mask-10)" fill-rule="evenodd">
                                    <g transform="translate(1.000000, 0.000000)" fill="#724133" id="Color">
                                        <rect x="0" y="0" width="264" height="280"></rect>
                                    </g>
                                </g>
                                <g id="Top/_Resources/Blank" stroke="none" fill="none" mask="url(#mask-10)">
                                    <g transform="translate(62.000000, 85.000000)"></g>
                                </g>
                            </g>
                        </g>
                    </g>
                </g>
            </g>
        </g>
    </g>
</svg>

<svg width="200" height="280" xmlns="http://www.w3.org/2000/svg" xmlns:xlink="http://www.w3.org/1999/xlink"><defs><path d="M124 144.611V163h4c39.765 0 72 32.235 72 72v9H0v-9c0-39.765 32.235-72 72-72h4v-18.389c-17.237-8.189-29.628-24.924-31.695-44.73C38.48 99.058 34 94.052 34 88V74c0-5.946 4.325-10.882 10-11.834V56c0-30.928 25.072-56 56-56s56 25.072 56 56v6.166c5.675.952 10 5.888 10 11.834v14c0 6.052-4.48 11.058-10.305 11.881-2.067 19.806-14.458 36.541-31.695 44.73z" id="a"/><path d="M181.544 32.33C210.784 41.488 232 68.792 232 101.052V110H32v-8.948c0-32.655 21.739-60.232 51.534-69.05A18.001 18.001 0 0083 36.348c0 16.281 22.162 29.48 49.5 29.48S182 52.629 182 36.348c0-1.363-.155-2.704-.456-4.018z" id="c"/><path d="M29 15.609C30.41 25.23 41.062 33 54 33c12.968 0 23.646-7.817 25-18.26.101-.4-.225-1.74-2.174-1.74H31.174c-1.79 0-2.304 1.24-2.174 2.609z" id="e"/><path id="g" d="M0 0h264v280H0z"/><path d="M114.94 28.337c-3.094-2.98-4.94-6.745-4.94-10.837C110 7.835 120.297 0 133 0s23 7.835 23 17.5c0 4.068-1.824 7.811-4.883 10.783 5.321 1.404 10.75 3.57 16.192 6.723 20.188 11.7 23.875 38.105 24.593 48.153.317 4.451-.154 8.95-1.15 13.279-.588 2.549-1.66 2.612-2.133-.237-1.241-7.494.629-15.986-3.436-22.9-3.434-5.84-14.948-33.165-52.183-31.63-37.235 1.535-41.812 18.85-48.213 27.177-2.586 3.365-4.275 7.689-5.602 11.677-.929 2.79-1.45 5.662-1.65 8.59-.108 1.566-.19 3.154-.113 4.723.058 1.195.667 2.746.5 3.87-.499 3.379-2.317-.802-2.654-2.008-.92-3.285-1.38-6.807-1.245-10.219.343-8.69 2.573-17.978 6.334-25.833 7.66-15.997 16.588-26.81 31.68-30.618.949-.24 1.917-.471 2.903-.693z" id="i"/></defs><g fill="none" fill-rule="evenodd"><g transform="translate(0 36)"><mask id="b" fill="#fff"><use xlink:href="#a"/></mask><use fill="#D0C6AC" xlink:href="#a"/><g mask="url(#b)" fill="#D08B5B"><path d="M-32 0h264v244H-32z"/></g><path d="M156 94v8c0 30.928-25.072 56-56 56s-56-25.072-56-56v-8c0 30.928 25.072 56 56 56s56-25.072 56-56z" fill-opacity=".1" fill="#000" mask="url(#b)"/></g><g transform="translate(-32 170)"><mask id="d" fill="#fff"><use xlink:href="#c"/></mask><use fill="#E6E6E6" xlink:href="#c"/><g mask="url(#d)" fill="#FFF"><path d="M0 0h264v110H0z"/></g></g><g transform="translate(46 134)"><mask id="f" fill="#fff"><use xlink:href="#e"/></mask><use fill-opacity=".7" fill="#000" xlink:href="#e"/><rect fill="#FFF" mask="url(#f)" x="39" y="2" width="31" height="16" rx="5"/><path d="M65.984 23.747c.01.083.016.167.016.253v9c0 6.075-4.925 11-11 11h-1c-6.075 0-11-4.925-11-11v-9c0-.086.005-.17.016-.253A1.922 1.922 0 0143 23.5c0-1.933 2.91-3.5 6.5-3.5 2.01 0 3.808.491 5 1.263 1.192-.772 2.99-1.263 5-1.263 3.59 0 6.5 1.567 6.5 3.5 0 .083-.005.165-.016.247z" fill="#FF4F6D"/></g><path d="M88 130c0 4.418 5.373 8 12 8s12-3.582 12-8" fill="#000" fill-opacity=".16"/><g transform="translate(44 90)"><circle fill="#FFF" cx="82" cy="22" r="12"/><circle fill-opacity=".7" fill="#000" cx="82" cy="22" r="6"/><path d="M16.16 25.447C18.007 21.65 22.164 19 26.998 19c4.816 0 8.961 2.63 10.817 6.407.552 1.122-.233 2.04-1.024 1.36-2.451-2.107-5.932-3.423-9.793-3.423-3.74 0-7.124 1.235-9.56 3.228-.891.728-1.818-.014-1.278-1.125z" fill-opacity=".6" fill="#000"/></g><g fill-rule="nonzero" fill="#000" fill-opacity=".6"><path d="M59.63 99.159c3.915-5.51 14.648-8.598 23.893-6.328a2 2 0 00.954-3.884c-10.737-2.637-23.165.94-28.107 7.894a2 2 0 003.26 2.318zM140.37 99.159c-3.915-5.51-14.648-8.598-23.893-6.328a2 2 0 01-.954-3.884c10.737-2.637 23.165.94 28.108 7.894a2 2 0 01-3.26 2.318z"/></g><g transform="translate(-32)"><mask id="h" fill="#fff"><use xlink:href="#g"/></mask><g mask="url(#h)"><g transform="translate(-1)"><mask id="j" fill="#fff"><use xlink:href="#i"/></mask><use fill="#28354B" xlink:href="#i"/><g mask="url(#j)"><path d="M1 0h264v280H1z" fill="#724133"/></g></g></g></g></g></svg>
